static/img/pages/community/plugin.svg

<svg width="18" height="18" viewBox="0 0 18 18" fill="none" xmlns="http://www.w3.org/2000/svg">
<path d="M1.70701 18L4.8097 14.8839C5.82588 15.5687 7.02241 15.9364 8.24737 15.9399H9.15274C10.7925 15.9399 12.3662 15.2894 13.525 14.1297L16.5429 11.1126L14.6803 9.25046L18 5.93166L16.2918 4.22393L12.9721 7.54273L10.4553 5.02653L13.775 1.70773L12.0668 0L8.7471 3.3188L6.88923 1.45786L3.87134 4.47495C2.71133 5.63466 2.05944 7.20919 2.06061 8.84973V9.75486C2.06415 10.9794 2.43196 12.1756 3.11687 13.1916L0 16.2935L1.70701 18ZM4.47498 8.84976C4.47262 7.85035 4.8699 6.89101 5.57959 6.18625L6.88929 4.87689L13.1336 11.1126L11.8239 12.422C11.1166 13.1326 10.1546 13.531 9.15258 13.5263H8.24722C7.24637 13.5275 6.28677 13.1303 5.57947 12.422C4.87096 11.7148 4.47368 10.7555 4.47486 9.75492L4.47498 8.84976Z" fill="white"/>
</svg>

<svg fill="none" height="18" width="18" xmlns="http://www.w3.org/2000/svg"><path d="M1.707 18l3.103-3.116a6.183 6.183 0 0 0 3.437 1.056h.906a6.18 6.18 0 0 0 4.372-1.81l3.018-3.017L14.68 9.25 18 5.932l-1.708-1.708-3.32 3.319-2.517-2.516 3.32-3.32L12.067 0l-3.32 3.319L6.89 1.458 3.871 4.475a6.181 6.181 0 0 0-1.81 4.375v.905a6.18 6.18 0 0 0 1.056 3.437L0 16.294zm2.768-9.15A3.741 3.741 0 0 1 5.58 6.186l1.31-1.31 6.244 6.237-1.31 1.309a3.745 3.745 0 0 1-2.671 1.104h-.906c-1 .002-1.96-.396-2.668-1.104a3.761 3.761 0 0 1-1.104-2.667z" fill="#fff"/></svg>
